Logo.svg

<svg width="125" height="25" viewBox="0 0 125 25" fill="none" xmlns="http://www.w3.org/2000/svg">
<ellipse cx="11.9792" cy="12.0311" rx="1.99249" ry="1.98733" fill="url(#paint0_linear_1_10)"/>
<path d="M14.6994 19.5034L14.6994 23.9965L9.55354 23.9965L9.55353 18.2212L5.28095 22.2062L2.02019 18.9539L6.24774 14.5576L-1.89471e-05 14.5576L-1.93809e-05 9.60826L4.77849 9.60826L14.6994 19.5034Z" fill="url(#paint1_linear_1_10)"/>
<path d="M19.5417 9.48387L23.9999 9.48387L23.9999 14.5655L18.2694 14.5655L22.2235 18.7849L18.9964 22.005L14.6342 17.8301L14.6342 24L9.72329 24L9.72329 19.2811L19.5417 9.48387Z" fill="url(#paint2_linear_1_10)" fill-opacity="0.9"/>
<path d="M4.50477 14.6613L1.52588e-05 14.6613L1.532e-05 9.52883L5.79036 9.52883L1.79499 5.26731L5.05574 2.015L9.46347 6.23159L9.46347 2.39547e-05L14.4256 2.40139e-05L14.4256 4.76615L4.50477 14.6613Z" fill="url(#paint3_linear_1_10)"/>
<path d="M9.30064 4.49309V0H14.4465V5.77535L18.7191 1.79032L21.9798 5.04263L17.7523 9.43894H24V14.3882H19.2215L9.30064 4.49309Z" fill="url(#paint4_linear_1_10)" fill-opacity="0.8"/>
<path d="M34.089 20V3.2H44.889V6.08H37.257V10.088H44.217V12.968H37.257V17.12H45.033V20H34.089ZM47.4741 20V8.096H50.4501V9.656H50.8821C51.0741 9.24 51.4341 8.848 51.9621 8.48C52.4901 8.096 53.2901 7.904 54.3621 7.904C55.2901 7.904 56.0981 8.12 56.7861 8.552C57.4901 8.968 58.0341 9.552 58.4181 10.304C58.8021 11.04 58.9941 11.904 58.9941 12.896V20H55.9701V13.136C55.9701 12.24 55.7461 11.568 55.2981 11.12C54.8661 10.672 54.2421 10.448 53.4261 10.448C52.4981 10.448 51.7781 10.76 51.2661 11.384C50.7541 11.992 50.4981 12.848 50.4981 13.952V20H47.4741ZM67.6871 20.336C66.5031 20.336 65.4551 20.088 64.5431 19.592C63.6471 19.08 62.9431 18.368 62.4311 17.456C61.9351 16.528 61.6871 15.44 61.6871 14.192V13.904C61.6871 12.656 61.9351 11.576 62.4311 10.664C62.9271 9.736 63.6231 9.024 64.5191 8.528C65.4151 8.016 66.4551 7.76 67.6391 7.76C68.8071 7.76 69.8231 8.024 70.6871 8.552C71.5511 9.064 72.2231 9.784 72.7031 10.712C73.1831 11.624 73.4231 12.688 73.4231 13.904V14.936H64.7591C64.7911 15.752 65.0951 16.416 65.6711 16.928C66.2471 17.44 66.9511 17.696 67.7831 17.696C68.6311 17.696 69.2551 17.512 69.6551 17.144C70.0551 16.776 70.3591 16.368 70.5671 15.92L73.0391 17.216C72.8151 17.632 72.4871 18.088 72.0551 18.584C71.6391 19.064 71.0791 19.48 70.3751 19.832C69.6711 20.168 68.7751 20.336 67.6871 20.336ZM64.7831 12.68H70.3511C70.2871 11.992 70.0071 11.44 69.5111 11.024C69.0311 10.608 68.3991 10.4 67.6151 10.4C66.7991 10.4 66.1511 10.608 65.6711 11.024C65.1911 11.44 64.8951 11.992 64.7831 12.68ZM75.5387 14.096V13.712C75.5387 12.464 75.7867 11.4 76.2827 10.52C76.7787 9.624 77.4347 8.944 78.2507 8.48C79.0827 8 79.9867 7.76 80.9627 7.76C82.0507 7.76 82.8747 7.952 83.4347 8.336C83.9947 8.72 84.4027 9.12 84.6587 9.536H85.0907V8.096H88.0667V22.112C88.0667 22.928 87.8267 23.576 87.3467 24.056C86.8667 24.552 86.2267 24.8 85.4267 24.8H77.4587V22.16H84.3707C84.8187 22.16 85.0427 21.92 85.0427 21.44V18.344H84.6107C84.4507 18.6 84.2267 18.864 83.9387 19.136C83.6507 19.392 83.2667 19.608 82.7867 19.784C82.3067 19.96 81.6987 20.048 80.9627 20.048C79.9867 20.048 79.0827 19.816 78.2507 19.352C77.4347 18.872 76.7787 18.192 76.2827 17.312C75.7867 16.416 75.5387 15.344 75.5387 14.096ZM81.8267 17.408C82.7547 17.408 83.5307 17.112 84.1547 16.52C84.7787 15.928 85.0907 15.096 85.0907 14.024V13.784C85.0907 12.696 84.7787 11.864 84.1547 11.288C83.5467 10.696 82.7707 10.4 81.8267 10.4C80.8987 10.4 80.1227 10.696 79.4987 11.288C78.8747 11.864 78.5627 12.696 78.5627 13.784V14.024C78.5627 15.096 78.8747 15.928 79.4987 16.52C80.1227 17.112 80.8987 17.408 81.8267 17.408ZM91.4194 20V8.096H94.3954V9.392H94.8274C95.0354 8.992 95.3794 8.648 95.8594 8.36C96.3394 8.056 96.9714 7.904 97.7554 7.904C98.6034 7.904 99.2834 8.072 99.7954 8.408C100.307 8.728 100.699 9.152 100.971 9.68H101.403C101.675 9.168 102.059 8.744 102.555 8.408C103.051 8.072 103.755 7.904 104.667 7.904C105.403 7.904 106.067 8.064 106.659 8.384C107.267 8.688 107.747 9.16 108.099 9.8C108.467 10.424 108.651 11.216 108.651 12.176V20H105.627V12.392C105.627 11.736 105.459 11.248 105.123 10.928C104.787 10.592 104.315 10.424 103.707 10.424C103.019 10.424 102.483 10.648 102.099 11.096C101.731 11.528 101.547 12.152 101.547 12.968V20H98.5234V12.392C98.5234 11.736 98.3554 11.248 98.0194 10.928C97.6834 10.592 97.2114 10.424 96.6034 10.424C95.9154 10.424 95.3794 10.648 94.9954 11.096C94.6274 11.528 94.4434 12.152 94.4434 12.968V20H91.4194ZM115.6 20.336C114.752 20.336 113.992 20.192 113.32 19.904C112.648 19.6 112.112 19.168 111.712 18.608C111.328 18.032 111.136 17.336 111.136 16.52C111.136 15.704 111.328 15.024 111.712 14.48C112.112 13.92 112.656 13.504 113.344 13.232C114.048 12.944 114.848 12.8 115.744 12.8H119.008V12.128C119.008 11.568 118.832 11.112 118.48 10.76C118.128 10.392 117.568 10.208 116.8 10.208C116.048 10.208 115.488 10.384 115.12 10.736C114.752 11.072 114.512 11.512 114.4 12.056L111.616 11.12C111.808 10.512 112.112 9.96 112.528 9.464C112.96 8.952 113.528 8.544 114.232 8.24C114.952 7.92 115.824 7.76 116.848 7.76C118.416 7.76 119.656 8.152 120.568 8.936C121.48 9.72 121.936 10.856 121.936 12.344V16.784C121.936 17.264 122.16 17.504 122.608 17.504H123.568V20H121.552C120.96 20 120.472 19.856 120.088 19.568C119.704 19.28 119.512 18.896 119.512 18.416V18.392H119.056C118.992 18.584 118.848 18.84 118.624 19.16C118.4 19.464 118.048 19.736 117.568 19.976C117.088 20.216 116.432 20.336 115.6 20.336ZM116.128 17.888C116.976 17.888 117.664 17.656 118.192 17.192C118.736 16.712 119.008 16.08 119.008 15.296V15.056H115.96C115.4 15.056 114.96 15.176 114.64 15.416C114.32 15.656 114.16 15.992 114.16 16.424C114.16 16.856 114.328 17.208 114.664 17.48C115 17.752 115.488 17.888 116.128 17.888Z" fill="#222222"/>
<defs>
<linearGradient id="paint0_linear_1_10" x1="10.4484" y1="10.768" x2="13.9673" y2="12.8962" gradientUnits="userSpaceOnUse">
<stop stop-color="#0B75FE"/>
<stop offset="1" stop-color="#EFC2E4"/>
</linearGradient>
<linearGradient id="paint1_linear_1_10" x1="10.3886" y1="13.0748" x2="1.52687" y2="18.5216" gradientUnits="userSpaceOnUse">
<stop offset="0.469205" stop-color="#1C73FE"/>
<stop offset="1" stop-color="#158EFF"/>
</linearGradient>
<linearGradient id="paint2_linear_1_10" x1="16.8616" y1="9.48387" x2="16.8616" y2="24" gradientUnits="userSpaceOnUse">
<stop stop-color="#C3B2F7"/>
<stop offset="1" stop-color="#6181FB"/>
</linearGradient>
<linearGradient id="paint3_linear_1_10" x1="7.21283" y1="2.39279e-05" x2="7.21283" y2="14.6613" gradientUnits="userSpaceOnUse">
<stop stop-color="#608EFE"/>
<stop offset="1" stop-color="#AADFFF" stop-opacity="0.8"/>
</linearGradient>
<linearGradient id="paint4_linear_1_10" x1="15.1262" y1="9.97954" x2="16.6418" y2="0.00576434" gradientUnits="userSpaceOnUse">
<stop stop-color="#618CFB"/>
<stop offset="1" stop-color="#50C4FF"/>
</linearGradient>
</defs>
</svg>

<svg fill="none" height="25" width="125" xmlns="http://www.w3.org/2000/svg" xmlns:xlink="http://www.w3.org/1999/xlink"><linearGradient id="a" gradientUnits="userSpaceOnUse" x1="10.448" x2="13.967" y1="10.768" y2="12.896"><stop offset="0" stop-color="#0b75fe"/><stop offset="1" stop-color="#efc2e4"/></linearGradient><linearGradient id="b" gradientUnits="userSpaceOnUse" x1="10.389" x2="1.527" y1="13.075" y2="18.522"><stop offset=".469" stop-color="#1c73fe"/><stop offset="1" stop-color="#158eff"/></linearGradient><linearGradient id="c" gradientUnits="userSpaceOnUse" x1="16.862" x2="16.862" y1="9.484" y2="24"><stop offset="0" stop-color="#c3b2f7"/><stop offset="1" stop-color="#6181fb"/></linearGradient><linearGradient id="d" gradientUnits="userSpaceOnUse" x1="7.213" x2="7.213" y2="14.661"><stop offset="0" stop-color="#608efe"/><stop offset="1" stop-color="#aadfff" stop-opacity=".8"/></linearGradient><linearGradient id="e" gradientUnits="userSpaceOnUse" x1="15.126" x2="16.642" y1="9.98" y2=".006"><stop offset="0" stop-color="#618cfb"/><stop offset="1" stop-color="#50c4ff"/></linearGradient><ellipse cx="11.979" cy="12.031" fill="url(#a)" rx="1.992" ry="1.987"/><path d="m14.7 19.503v4.494h-5.147v-5.777l-4.273 3.986-3.26-3.252 4.227-4.396h-6.247v-4.95h4.778l9.921 9.895z" fill="url(#b)"/><path d="m19.542 9.484h4.458v5.082h-5.73l3.954 4.219-3.228 3.22-4.362-4.175v6.17h-4.91v-4.719z" fill="url(#c)" fill-opacity=".9"/><path d="m4.505 14.661h-4.505v-5.131h5.79l-3.995-4.263 3.26-3.252 4.408 4.217v-6.232h4.963v4.766z" fill="url(#d)"/><path d="m9.3 4.493v-4.493h5.146v5.775l4.274-3.985 3.26 3.253-4.227 4.396h6.247v4.95h-4.779l-9.92-9.896z" fill="url(#e)" fill-opacity=".8"/><path d="m34.089 20v-16.8h10.8v2.88h-7.632v4.008h6.96v2.88h-6.96v4.152h7.776v2.88zm13.385 0v-11.904h2.976v1.56h.432c.192-.416.552-.808 1.08-1.176.528-.384 1.328-.576 2.4-.576.928 0 1.736.216 2.424.648.704.416 1.248 1 1.632 1.752.384.736.576 1.6.576 2.592v7.104h-3.024v-6.864c0-.896-.224-1.568-.672-2.016-.432-.448-1.056-.672-1.872-.672-.928 0-1.648.312-2.16.936-.512.608-.768 1.464-.768 2.568v6.048zm20.213.336c-1.184 0-2.232-.248-3.144-.744a5.53 5.53 0 0 1 -2.112-2.136c-.496-.928-.744-2.016-.744-3.264v-.288c0-1.248.248-2.328.744-3.24a5.168 5.168 0 0 1 2.088-2.136c.896-.512 1.936-.768 3.12-.768 1.168 0 2.184.264 3.048.792a5.26 5.26 0 0 1 2.016 2.16c.48.912.72 1.976.72 3.192v1.032h-8.663c.032.816.336 1.48.912 1.992s1.28.768 2.112.768c.848 0 1.472-.184 1.872-.552s.704-.776.912-1.224l2.472 1.296c-.224.416-.552.872-.984 1.368-.416.48-.976.896-1.68 1.248-.704.336-1.6.504-2.688.504zm-2.904-7.656h5.568c-.064-.688-.344-1.24-.84-1.656-.48-.416-1.112-.624-1.896-.624-.816 0-1.464.208-1.944.624s-.776.968-.888 1.656zm10.756 1.416v-.384c0-1.248.248-2.312.744-3.192.496-.896 1.152-1.576 1.968-2.04a5.334 5.334 0 0 1 2.712-.72c1.088 0 1.912.192 2.472.576s.968.784 1.224 1.2h.432v-1.44h2.976v14.016c0 .816-.24 1.464-.72 1.944-.48.496-1.12.744-1.92.744h-7.968v-2.64h6.912c.448 0 .672-.24.672-.72v-3.096h-.432c-.16.256-.384.52-.672.792-.288.256-.672.472-1.152.648s-1.088.264-1.824.264c-.976 0-1.88-.232-2.712-.696-.816-.48-1.472-1.16-1.968-2.04-.496-.896-.744-1.968-.744-3.216zm6.288 3.312c.928 0 1.704-.296 2.328-.888s.936-1.424.936-2.496v-.24c0-1.088-.312-1.92-.936-2.496-.608-.592-1.384-.888-2.328-.888-.928 0-1.704.296-2.328.888-.624.576-.936 1.408-.936 2.496v.24c0 1.072.312 1.904.936 2.496s1.4.888 2.328.888zm9.592 2.592v-11.904h2.976v1.296h.432c.208-.4.552-.744 1.032-1.032.48-.304 1.112-.456 1.896-.456.848 0 1.528.168 2.04.504.512.32.904.744 1.176 1.272h.432a3.508 3.508 0 0 1 1.152-1.272c.496-.336 1.2-.504 2.112-.504.736 0 1.4.16 1.992.48.608.304 1.088.776 1.44 1.416.368.624.552 1.416.552 2.376v7.824h-3.024v-7.608c0-.656-.168-1.144-.504-1.464-.336-.336-.808-.504-1.416-.504-.688 0-1.224.224-1.608.672-.368.432-.552 1.056-.552 1.872v7.032h-3.024v-7.608c0-.656-.168-1.144-.504-1.464-.336-.336-.808-.504-1.416-.504-.688 0-1.224.224-1.608.672-.368.432-.552 1.056-.552 1.872v7.032h-3.023zm24.181.336c-.848 0-1.608-.144-2.28-.432a3.91 3.91 0 0 1 -1.608-1.296c-.384-.576-.576-1.272-.576-2.088s.192-1.496.576-2.04c.4-.56.944-.976 1.632-1.248.704-.288 1.504-.432 2.4-.432h3.264v-.672c0-.56-.176-1.016-.528-1.368-.352-.368-.912-.552-1.68-.552-.752 0-1.312.176-1.68.528-.368.336-.608.776-.72 1.32l-2.784-.936c.192-.608.496-1.16.912-1.656.432-.512 1-.92 1.704-1.224.72-.32 1.592-.48 2.616-.48 1.568 0 2.808.392 3.72 1.176s1.368 1.92 1.368 3.408v4.44c0 .48.224.72.672.72h.96v2.496h-2.016c-.592 0-1.08-.144-1.464-.432a1.368 1.368 0 0 1 -.576-1.152v-.024h-.456c-.064.192-.208.448-.432.768-.224.304-.576.576-1.056.816s-1.136.36-1.968.36zm.528-2.448c.848 0 1.536-.232 2.064-.696.544-.48.816-1.112.816-1.896v-.24h-3.048c-.56 0-1 .12-1.32.36s-.48.576-.48 1.008.168.784.504 1.056.824.408 1.464.408z" fill="#222"/></svg>
